apps/www/public/images/launchweek/outro.svg

<svg width="94" height="64" viewBox="0 0 94 64" fill="none" xmlns="http://www.w3.org/2000/svg">
<path fill-rule="evenodd" clip-rule="evenodd" d="M31.5315 14.6425C41.0816 14.6425 48.8236 22.3844 48.8236 31.9346C48.8236 35.9202 47.4762 39.5895 45.2107 42.5142V39.4437H43.1463V44.8831L44.1785 45.9153H49.6179V43.8509L46.7862 43.8509C49.3555 40.566 50.888 36.4285 50.888 31.9346C50.888 21.2443 42.2218 12.5781 31.5315 12.5781V14.6425ZM18.8891 17.9543L19.9213 18.9865L19.9213 24.4259H17.857V21.3554C15.5915 24.28 14.2441 27.9494 14.2441 31.935C14.2441 41.4851 21.986 49.2271 31.5362 49.2271V51.2915C20.8459 51.2915 12.1797 42.6253 12.1797 31.935C12.1797 27.4411 13.7121 23.3036 16.2815 20.0187H13.4497L13.4497 17.9543L18.8891 17.9543ZM42.5667 31.9997C42.5667 37.9538 37.7399 42.7805 31.7859 42.7805C25.8318 42.7805 21.005 37.9538 21.005 31.9997C21.005 26.0456 25.8318 21.2189 31.7859 21.2189C37.7399 21.2189 42.5667 26.0456 42.5667 31.9997ZM38.2586 28.8506L30.4988 36.6104H29.039L25.3127 32.8841L26.7725 31.4244L29.7689 34.4208L36.7989 27.3909L38.2586 28.8506Z" fill="url(#paint0_linear_1179_212431)"/>
<defs>
<linearGradient id="paint0_linear_1179_212431" x1="5.77717" y1="47.3852" x2="66.3666" y2="46.7302" gradientUnits="userSpaceOnUse">
<stop stopColor="#F4FFFA" stop-opacity="0.76"/>
<stop offset="1" stop-color="#D8FFEC" stop-opacity="0.48"/>
</linearGradient>
</defs>
</svg>

<svg xmlns="http://www.w3.org/2000/svg" width="94" height="64" fill="none" viewBox="0 0 94 64"><path fill="url(#a)" fill-rule="evenodd" d="M31.532 14.643c9.55 0 17.292 7.741 17.292 17.292 0 3.985-1.348 7.655-3.613 10.58v-3.071h-2.065v5.44l1.032 1.031h5.44v-2.064h-2.832a19.28 19.28 0 0 0 4.102-11.916c0-10.69-8.666-19.357-19.356-19.357zm-12.643 3.311 1.032 1.032v5.44h-2.064v-3.07a17.2 17.2 0 0 0-3.613 10.579c0 9.55 7.742 17.292 17.292 17.292v2.065c-10.69 0-19.356-8.667-19.356-19.357 0-4.494 1.532-8.631 4.102-11.916H13.45v-2.065zM42.567 32c0 5.954-4.827 10.78-10.781 10.78S21.005 37.955 21.005 32s4.827-10.781 10.78-10.781c5.955 0 10.782 4.827 10.782 10.78m-4.308-3.15-7.76 7.76h-1.46l-3.726-3.726 1.46-1.46 2.996 2.997 7.03-7.03z" clip-rule="evenodd"/><defs><linearGradient id="a" x1="5.777" x2="66.367" y1="47.385" y2="46.73" gradientUnits="userSpaceOnUse"><stop stop-opacity=".76"/><stop offset="1" stop-color="#d8ffec" stop-opacity=".48"/></linearGradient></defs></svg>
